X:1
T:Fado das Horas
C:Traditional
L:1/8
M:4/4
K:Emaj
"E" z8 |
z2 E FG/2G/2G FE/2E/2-EF- | "B7" F4 z4 |
(3AAA- A A3/2B/2- B/2A/2G/2F/2 | "E" E4 z E2 B- |
BE E2- EF- F/2G/2B- | "B7" B4 z E/2E/2- E3/2C/2- |
C B,3 z B, C/2D/2F | "E" E4 z E- E3/2B/2- |
B E2 E- E3/2F/2- FG | "B7" B4- B3/2D/2 D3/2C/2- |
C B,3 z B, C/2DF/2- | "E" FE- E4 z2 |
z2 E FG/2G/2G D/C3/ | "B7" B,2 z6 | 
z2 z/ F/F/G/- GF FD/C/- | C B,3 z4 | 


